images/logo-veriff.svg

<svg width="111" height="30" viewBox="0 0 111 30" fill="none" xmlns="http://www.w3.org/2000/svg">
<g clip-path="url(#clip0_722_693)">
<path d="M9.45465 25.2018C9.05505 23.2277 8.15595 20.5176 5.12687 12.086H0L7.02441 29.5847H11.8182L18.4764 12.0859H13.4494C10.5864 20.3501 9.78754 22.9934 9.45465 25.2017V25.2018Z" fill="#03282C"/>
<path d="M27.5248 11.7181C22.265 11.7181 18.5361 15.6327 18.5361 20.8858C18.5361 26.3059 22.3979 29.919 27.7911 29.919C31.2173 29.919 34.1461 28.1331 35.538 25.586L32.0193 23.6625C31.32 25.0342 29.8888 26.0045 27.8248 26.0045C25.3947 26.0045 23.4971 24.4658 23.2641 22.3242H36.4798C36.7129 15.2977 32.8179 11.7178 27.5248 11.7178V11.7181ZM23.2303 19.012C23.3968 16.9711 25.1612 15.5324 27.5248 15.5324C29.8884 15.5324 31.5862 16.9715 31.6861 19.012H23.2303Z" fill="#03282C"/>
<path d="M55.4555 12.0859H50.7283V29.5847H55.4555V12.0859Z" fill="#03282C"/>
<path d="M78.4293 8.20484C79.1386 8.21331 79.8437 8.31451 80.5266 8.50584V4.69174C79.5581 4.38243 78.5475 4.22436 77.5306 4.22314C74.4012 4.22314 71.2718 5.89617 71.2718 10.8478V12.0859H64.3777V11.5171C64.1113 9.00765 65.1103 8.20484 66.8079 8.20484C67.5173 8.21327 68.2226 8.31447 68.9057 8.50584V4.69174C67.9372 4.38243 66.9266 4.22437 65.9096 4.22314C62.7803 4.22314 59.6509 5.89617 59.6509 10.8478V12.0859H57.5863V15.7984H59.6509V29.5845H64.3783V15.7984H71.2724V29.5845H75.9998V15.7984H80.5271V12.0859H75.9992V11.5171C75.7328 9.00765 76.7318 8.20484 78.4293 8.20484Z" fill="#03282C"/>
<path d="M43.5542 17.4479V16.7646L43.04 12.086H38.9269V29.5846H43.5542V22.4935C43.5542 18.7947 46.0954 16.5007 48.8837 16.5007V11.8853C45.6099 12.2127 43.5544 14.1068 43.5542 17.4479Z" fill="#03282C"/>
<path d="M55.4938 5.76514H50.6903V9.57325H55.4938V5.76514Z" fill="#03282C"/>
<path d="M101.397 11.9336V23.7454H101.437C102.226 17.7786 105.738 13.8793 111 12.023V0C104.949 1.06074 101.397 4.90583 101.397 11.9336Z" fill="#14E5C5"/>
<path d="M90.1133 22.0353L99.7162 29.9906V14.2123L90.1133 6.25684V22.0353Z" fill="#14E5C5"/>
</g>
<defs>
<clipPath id="clip0_722_693">
<rect width="111" height="30" fill="white"/>
</clipPath>
</defs>
</svg>

<svg xmlns="http://www.w3.org/2000/svg" width="111" height="30" fill="none" viewBox="0 0 111 30"><g clip-path="url(#a)"><path fill="#03282c" d="M9.455 25.202c-.4-1.974-1.299-4.684-4.328-13.116H0l7.024 17.499h4.794l6.658-17.5H13.45c-2.863 8.265-3.661 10.908-3.994 13.117m18.069-13.484c-5.26 0-8.989 3.915-8.989 9.168 0 5.42 3.862 9.033 9.255 9.033 3.426 0 6.355-1.786 7.747-4.333l-3.519-1.923c-.699 1.371-2.13 2.342-4.194 2.342-2.43 0-4.328-1.54-4.56-3.68H36.48c.233-7.027-3.662-10.607-8.955-10.607m-4.295 7.294c.167-2.04 1.931-3.48 4.295-3.48s4.061 1.44 4.161 3.48zm32.226-6.926h-4.728v17.499h4.727zM78.43 8.205a8.2 8.2 0 0 1 2.097.3V4.693a9.9 9.9 0 0 0-2.996-.469c-3.13 0-6.26 1.673-6.26 6.625v1.238h-6.893v-.569c-.267-2.51.732-3.312 2.43-3.312.71.008 1.415.11 2.098.3V4.693a9.9 9.9 0 0 0-2.996-.469c-3.13 0-6.26 1.673-6.26 6.625v1.238h-2.064v3.712h2.065v13.786h4.727V15.798h6.894v13.786H76V15.798h4.527v-3.712H76v-.569c-.266-2.51.733-3.312 2.43-3.312m-34.876 9.243v-.683l-.514-4.679h-4.113v17.499h4.627v-7.091c0-3.7 2.541-5.993 5.33-5.993v-4.616c-3.274.328-5.33 2.222-5.33 5.563m11.94-11.683H50.69v3.808h4.804z"/><path fill="#14e5c5" d="M101.397 11.934v11.811h.04c.789-5.966 4.301-9.866 9.563-11.722V0c-6.051 1.06-9.603 4.906-9.603 11.934M90.113 22.035l9.603 7.956V14.212l-9.603-7.955z"/></g><defs><clipPath id="a"><path fill="#fff" d="M0 0h111v30H0z"/></clipPath></defs></svg>
